cached_logos/netdata.svg

<svg viewBox="-51.70 -51.70 2688.40 2435.40" xmlns="http://www.w3.org/2000/svg"><title>Netdata</title><path fill="#616161" d="M186.892 1975.7c44.466 0 79.687 12.99 105.663 38.96 26.416 25.54 39.623 63.18 39.623 112.93v201.42h-63.397v-194.15c0-33.9-8.145-59.44-24.435-76.61s-39.624-25.75-70.002-25.75c-34.34 0-61.417 10.12-81.228 30.37-19.812 19.82-29.718 48.43-29.718 85.86v180.28H0V1979h60.756v52.84c12.768-18.06 29.938-31.92 51.511-41.61 22.013-9.69 46.888-14.53 74.625-14.53zm565.736 180.29c0 4.84-.44 11.23-1.321 19.15h-283.97c3.963 30.82 17.391 55.69 40.285 74.63 23.334 18.49 52.171 27.73 86.511 27.73 41.825 0 75.505-14.09 101.041-42.26l35.001 40.94c-15.85 18.49-35.662 32.58-59.436 42.27-23.334 9.68-49.53 14.53-78.587 14.53-36.982 0-69.782-7.49-98.399-22.46-28.617-15.41-50.85-36.76-66.7-64.06-15.409-27.29-23.113-58.11-23.113-92.45 0-33.9 7.484-64.5 22.453-91.8 15.409-27.29 36.322-48.43 62.737-63.39 26.857-15.41 57.015-23.12 90.475-23.12 33.46 0 63.177 7.71 89.153 23.12 26.416 14.96 46.888 36.1 61.417 63.39 14.968 27.3 22.453 58.56 22.453 93.78zm-173.023-126.8c-30.379 0-55.914 9.25-76.606 27.74-20.252 18.49-32.139 42.71-35.662 72.64h224.535c-3.522-29.49-15.63-53.49-36.322-71.98-20.252-18.93-45.567-28.4-75.945-28.4zm464.455 279.35c-9.24 7.93-20.69 14.09-34.34 18.49-13.646 3.96-27.734 5.95-42.263 5.95-35.221 0-62.517-9.47-81.889-28.4-19.371-18.93-29.057-46.01-29.057-81.23v-192.18h-59.435V1979h59.435v-76.6h63.398v76.6h100.381v52.17H919.909v189.54c0 18.93 4.623 33.46 13.868 43.58 9.686 10.13 23.334 15.19 40.945 15.19 19.371 0 35.878-5.5 49.528-16.51l19.81 45.57zM1437.7 1839v490.01h-60.76v-55.47c-14.09 19.37-31.92 34.12-53.49 44.25-21.57 10.12-45.35 15.19-71.32 15.19-33.9 0-64.28-7.49-91.14-22.46-26.85-14.97-47.98-35.88-63.39-62.74-14.97-27.29-22.46-58.55-22.46-93.77s7.49-66.26 22.46-93.12c15.41-26.85 36.54-47.77 63.39-62.73 26.86-14.97 57.24-22.46 91.14-22.46 25.09 0 48.21 4.84 69.34 14.53 21.13 9.25 38.74 23.11 52.83 41.61V1839h63.4zm-180.29 438.5c22.01 0 42.05-5.06 60.1-15.19 18.05-10.56 32.14-25.09 42.26-43.58 10.13-18.93 15.19-40.51 15.19-64.72 0-24.22-5.06-45.57-15.19-64.06-10.12-18.93-24.21-33.46-42.26-43.59-18.05-10.12-38.09-15.19-60.1-15.19-22.45 0-42.7 5.07-60.75 15.19-17.62 10.13-31.7 24.66-42.27 43.59-10.13 18.49-15.19 39.84-15.19 64.06 0 24.21 5.06 45.79 15.19 64.72 10.57 18.49 24.65 33.02 42.27 43.58 18.05 10.13 38.3 15.19 60.75 15.19zm610.63-298.5v350.01h-60.76v-55.47c-14.09 19.37-31.92 34.12-53.49 44.25-21.57 10.12-45.35 15.19-71.32 15.19-33.9 0-64.28-7.49-91.14-22.46-26.85-14.97-47.98-35.88-63.39-62.74-14.97-27.29-22.46-58.55-22.46-93.77s7.49-66.26 22.46-93.12c15.41-26.85 36.54-47.77 63.39-62.73 26.86-14.97 57.24-22.46 91.14-22.46 25.09 0 48.21 4.84 69.34 14.53 21.13 9.25 38.74 23.11 52.83 41.61V1979h63.4zm-180.29 298.5c22.02 0 42.05-5.06 60.1-15.19 18.05-10.56 32.14-25.09 42.26-43.58 10.13-18.93 15.19-40.51 15.19-64.72 0-24.22-5.06-45.57-15.19-64.06-10.12-18.93-24.21-33.46-42.26-43.59-18.05-10.12-38.08-15.19-60.1-15.19-22.45 0-42.7 5.07-60.75 15.19-17.62 10.13-31.7 24.66-42.27 43.59-10.13 18.49-15.19 39.84-15.19 64.06 0 24.21 5.06 45.79 15.19 64.72 10.57 18.49 24.65 33.02 42.27 43.58 18.05 10.13 38.3 15.19 60.75 15.19zm503.65 31.04c-9.25 7.93-20.7 14.09-34.35 18.49-13.64 3.96-27.73 5.95-42.26 5.95-35.22 0-62.52-9.47-81.89-28.4-19.37-18.93-29.06-46.01-29.06-81.23v-192.18h-59.43V1979h59.43v-76.6h63.4v76.6h100.38v52.17h-100.38v189.54c0 18.93 4.62 33.46 13.87 43.58 9.69 10.13 23.33 15.19 40.94 15.19 19.38 0 35.89-5.5 49.53-16.51l19.82 45.57zM2585.03 1979v350.01h-60.75v-55.47c-14.09 19.37-31.92 34.12-53.5 44.25-21.57 10.12-45.34 15.19-71.32 15.19-33.9 0-64.28-7.49-91.13-22.46-26.86-14.97-47.99-35.88-63.4-62.74-14.97-27.29-22.45-58.55-22.45-93.77s7.48-66.26 22.45-93.12c15.41-26.85 36.54-47.77 63.4-62.73 26.85-14.97 57.23-22.46 91.13-22.46 25.1 0 48.21 4.84 69.34 14.53 21.14 9.25 38.75 23.11 52.83 41.61V1979h63.4zm-180.29 298.5c22.02 0 42.05-5.06 60.1-15.19 18.05-10.56 32.14-25.09 42.27-43.58 10.12-18.93 15.18-40.51 15.18-64.72 0-24.22-5.06-45.57-15.18-64.06-10.13-18.93-24.22-33.46-42.27-43.59-18.05-10.12-38.08-15.19-60.1-15.19-22.45 0-42.7 5.07-60.75 15.19-17.61 10.13-31.7 24.66-42.27 43.59-10.12 18.49-15.19 39.84-15.19 64.06 0 24.21 5.07 45.79 15.19 64.72 10.57 18.49 24.66 33.02 42.27 43.58 18.05 10.13 38.3 15.19 60.75 15.19z"/><path fill="#00C853" fill-rule="evenodd" d="M432.154 838.78c0-370.833 234.426-686.913 563.168-808.129C1133 19.076 1275.46 49.85 1402.13 127.863c81.92 50.452 149.17 115.691 200.42 190.153-9.76-112.91-48-222.551-112.03-317.567 161.63 37.896 305.71 121.324 418 236.014 41.43 57.525 71.64 124.544 86.75 198.503 14.88 72.786 13.68 145.125-1.16 213.332a520.063 520.063 0 0 0 92.13-145.473c43.79 103.227 68.01 216.763 68.01 335.955 0 475.54-385.51 861.05-861.05 861.05-475.542 0-861.046-385.51-861.046-861.05zm1178.296 512.54c107.85 0 195.28-87.43 195.28-195.28 0-107.84-87.43-195.27-195.28-195.27-107.84 0-195.27 87.43-195.27 195.27 0 107.85 87.43 195.28 195.27 195.28z" clip-rule="evenodd"/></svg>

<svg   viewBox="-51.7199999999998 -46.659999999999854 2689.44 2426.32" fill="none" xmlns="http://www.w3.org/2000/svg">
<path d="M186.892 1975.7C231.358 1975.7 266.579 1988.69 292.555 2014.66C318.971 2040.2 332.178 2077.84 332.178 2127.59V2329.01H268.781V2134.86C268.781 2100.96 260.636 2075.42 244.346 2058.25C228.056 2041.08 204.722 2032.5 174.344 2032.5C140.004 2032.5 112.927 2042.62 93.1156 2062.87C73.3038 2082.69 63.3979 2111.3 63.3979 2148.73V2329.01H0V1979H60.7563V2031.84C73.5239 2013.78 90.6942 1999.92 112.267 1990.23C134.28 1980.54 159.155 1975.7 186.892 1975.7Z" fill="#616161"/>
<path d="M752.628 2155.99C752.628 2160.83 752.188 2167.22 751.307 2175.14H467.337C471.3 2205.96 484.728 2230.83 507.622 2249.77C530.956 2268.26 559.793 2277.5 594.133 2277.5C635.958 2277.5 669.638 2263.41 695.174 2235.24L730.175 2276.18C714.325 2294.67 694.513 2308.76 670.739 2318.45C647.405 2328.13 621.209 2332.98 592.152 2332.98C555.17 2332.98 522.37 2325.49 493.753 2310.52C465.136 2295.11 442.903 2273.76 427.053 2246.46C411.644 2219.17 403.94 2188.35 403.94 2154.01C403.94 2120.11 411.424 2089.51 426.393 2062.21C441.802 2034.92 462.715 2013.78 489.13 1998.82C515.987 1983.41 546.145 1975.7 579.605 1975.7C613.065 1975.7 642.782 1983.41 668.758 1998.82C695.174 2013.78 715.646 2034.92 730.175 2062.21C745.143 2089.51 752.628 2120.77 752.628 2155.99ZM579.605 2029.19C549.226 2029.19 523.691 2038.44 502.999 2056.93C482.747 2075.42 470.86 2099.64 467.337 2129.57H691.872C688.35 2100.08 676.242 2076.08 655.55 2057.59C635.298 2038.66 609.983 2029.19 579.605 2029.19Z" fill="#616161"/>
<path d="M1044.06 2308.54C1034.82 2316.47 1023.37 2322.63 1009.72 2327.03C996.074 2330.99 981.986 2332.98 967.457 2332.98C932.236 2332.98 904.94 2323.51 885.568 2304.58C866.197 2285.65 856.511 2258.57 856.511 2223.35V2031.17H797.076V1979H856.511V1902.4H919.909V1979H1020.29V2031.17H919.909V2220.71C919.909 2239.64 924.532 2254.17 933.777 2264.29C943.463 2274.42 957.111 2279.48 974.722 2279.48C994.093 2279.48 1010.6 2273.98 1024.25 2262.97L1044.06 2308.54Z" fill="#616161"/>
<path d="M1437.7 1839V2329.01H1376.94V2273.54C1362.85 2292.91 1345.02 2307.66 1323.45 2317.79C1301.88 2327.91 1278.1 2332.98 1252.13 2332.98C1218.23 2332.98 1187.85 2325.49 1160.99 2310.52C1134.14 2295.55 1113.01 2274.64 1097.6 2247.78C1082.63 2220.49 1075.14 2189.23 1075.14 2154.01C1075.14 2118.79 1082.63 2087.75 1097.6 2060.89C1113.01 2034.04 1134.14 2013.12 1160.99 1998.16C1187.85 1983.19 1218.23 1975.7 1252.13 1975.7C1277.22 1975.7 1300.34 1980.54 1321.47 1990.23C1342.6 1999.48 1360.21 2013.34 1374.3 2031.84V1839H1437.7ZM1257.41 2277.5C1279.42 2277.5 1299.46 2272.44 1317.51 2262.31C1335.56 2251.75 1349.65 2237.22 1359.77 2218.73C1369.9 2199.8 1374.96 2178.22 1374.96 2154.01C1374.96 2129.79 1369.9 2108.44 1359.77 2089.95C1349.65 2071.02 1335.56 2056.49 1317.51 2046.36C1299.46 2036.24 1279.42 2031.17 1257.41 2031.17C1234.96 2031.17 1214.71 2036.24 1196.66 2046.36C1179.04 2056.49 1164.96 2071.02 1154.39 2089.95C1144.26 2108.44 1139.2 2129.79 1139.2 2154.01C1139.2 2178.22 1144.26 2199.8 1154.39 2218.73C1164.96 2237.22 1179.04 2251.75 1196.66 2262.31C1214.71 2272.44 1234.96 2277.5 1257.41 2277.5Z" fill="#616161"/>
<path d="M1868.04 1979V2329.01H1807.28V2273.54C1793.19 2292.91 1775.36 2307.66 1753.79 2317.79C1732.22 2327.91 1708.44 2332.98 1682.47 2332.98C1648.57 2332.98 1618.19 2325.49 1591.33 2310.52C1564.48 2295.55 1543.35 2274.64 1527.94 2247.78C1512.97 2220.49 1505.48 2189.23 1505.48 2154.01C1505.48 2118.79 1512.97 2087.75 1527.94 2060.89C1543.35 2034.04 1564.48 2013.12 1591.33 1998.16C1618.19 1983.19 1648.57 1975.7 1682.47 1975.7C1707.56 1975.7 1730.68 1980.54 1751.81 1990.23C1772.94 1999.48 1790.55 2013.34 1804.64 2031.84V1979H1868.04ZM1687.75 2277.5C1709.77 2277.5 1729.8 2272.44 1747.85 2262.31C1765.9 2251.75 1779.99 2237.22 1790.11 2218.73C1800.24 2199.8 1805.3 2178.22 1805.3 2154.01C1805.3 2129.79 1800.24 2108.44 1790.11 2089.95C1779.99 2071.02 1765.9 2056.49 1747.85 2046.36C1729.8 2036.24 1709.77 2031.17 1687.75 2031.17C1665.3 2031.17 1645.05 2036.24 1627 2046.36C1609.38 2056.49 1595.3 2071.02 1584.73 2089.95C1574.6 2108.44 1569.54 2129.79 1569.54 2154.01C1569.54 2178.22 1574.6 2199.8 1584.73 2218.73C1595.3 2237.22 1609.38 2251.75 1627 2262.31C1645.05 2272.44 1665.3 2277.5 1687.75 2277.5Z" fill="#616161"/>
<path d="M2191.4 2308.54C2182.15 2316.47 2170.7 2322.63 2157.05 2327.03C2143.41 2330.99 2129.32 2332.98 2114.79 2332.98C2079.57 2332.98 2052.27 2323.51 2032.9 2304.58C2013.53 2285.65 2003.84 2258.57 2003.84 2223.35V2031.17H1944.41V1979H2003.84V1902.4H2067.24V1979H2167.62V2031.17H2067.24V2220.71C2067.24 2239.64 2071.86 2254.17 2081.11 2264.29C2090.8 2274.42 2104.44 2279.48 2122.05 2279.48C2141.43 2279.48 2157.94 2273.98 2171.58 2262.97L2191.4 2308.54Z" fill="#616161"/>
<path d="M2585.03 1979V2329.01H2524.28V2273.54C2510.19 2292.91 2492.36 2307.66 2470.78 2317.79C2449.21 2327.91 2425.44 2332.98 2399.46 2332.98C2365.56 2332.98 2335.18 2325.49 2308.33 2310.52C2281.47 2295.55 2260.34 2274.64 2244.93 2247.78C2229.96 2220.49 2222.48 2189.23 2222.48 2154.01C2222.48 2118.79 2229.96 2087.75 2244.93 2060.89C2260.34 2034.04 2281.47 2013.12 2308.33 1998.16C2335.18 1983.19 2365.56 1975.7 2399.46 1975.7C2424.56 1975.7 2447.67 1980.54 2468.8 1990.23C2489.94 1999.48 2507.55 2013.34 2521.63 2031.84V1979H2585.03ZM2404.74 2277.5C2426.76 2277.5 2446.79 2272.44 2464.84 2262.31C2482.89 2251.75 2496.98 2237.22 2507.11 2218.73C2517.23 2199.8 2522.29 2178.22 2522.29 2154.01C2522.29 2129.79 2517.23 2108.44 2507.11 2089.95C2496.98 2071.02 2482.89 2056.49 2464.84 2046.36C2446.79 2036.24 2426.76 2031.17 2404.74 2031.17C2382.29 2031.17 2362.04 2036.24 2343.99 2046.36C2326.38 2056.49 2312.29 2071.02 2301.72 2089.95C2291.6 2108.44 2286.53 2129.79 2286.53 2154.01C2286.53 2178.22 2291.6 2199.8 2301.72 2218.73C2312.29 2237.22 2326.38 2251.75 2343.99 2262.31C2362.04 2272.44 2382.29 2277.5 2404.74 2277.5Z" fill="#616161"/>
<path fill-rule="evenodd" clip-rule="evenodd" d="M432.154 838.78C432.154 467.947 666.58 151.867 995.322 30.6515C1133 19.0755 1275.46 49.8495 1402.13 127.863C1484.05 178.315 1551.3 243.554 1602.55 318.016C1592.79 205.106 1554.55 95.465 1490.52 0.449219C1652.15 38.3447 1796.23 121.773 1908.52 236.463C1949.95 293.988 1980.16 361.007 1995.27 434.966C2010.15 507.752 2008.95 580.091 1994.11 648.298C2032.65 605.315 2063.83 556.105 2086.24 502.825C2130.03 606.052 2154.25 719.588 2154.25 838.78C2154.25 1314.32 1768.74 1699.83 1293.2 1699.83C817.658 1699.83 432.154 1314.32 432.154 838.78ZM1610.45 1351.32C1718.3 1351.32 1805.73 1263.89 1805.73 1156.04C1805.73 1048.2 1718.3 960.77 1610.45 960.77C1502.61 960.77 1415.18 1048.2 1415.18 1156.04C1415.18 1263.89 1502.61 1351.32 1610.45 1351.32Z" fill="#00C853"/>
</svg>
